!!!OTL: Der Ausreisser.
!!!OTL-incipit: ZU STRASSBURG AUF DER SCHANZ
!!!COM: Volksweise
!!!ARE: Europa, Mitteleuropa, Deutschland
!!!SCT: F0579
!!!TXL: @@DE
!!!YEM: Copyright 1995, estate of Helmut Schaffrath.
**kern	**text
*ICvox	*
*clefG2	*
*M4/4	*
*met(c)	*
*k[f#]	*
*G:	*
!LO:TX:a:t=Mäßig langſam.	!
!LO:TX:a:t=P:only the highest voice encoded:problem	!
{4d	1._Ʒu
=1	=1
4.g	Straßburg
8d	.
4g	auf
4a	der
=2	=2
2b/	Schanʒ,
4r}	.
{8gL	da
8aJ	.
=3	=3
4.b/	ging
8b/	mein
8b/L	Unglück
8aJ	.
4a	.
=4	=4
2g	an;
4r}	.
{(8g	da
8a)	.
=5	=5
8b/	wollt'
8b/	ich
8b/	den
8b/	Franʒo-
[8b/	.
8b/]	-ſen
(8a	de-
8b/)	-ſer-
=6	=6
2cc/	-tir'n,
4r}	.
{(8cc/	und
8b/)	.
=7	=7
(8bL	wollt'
8aJ)	es
4a	bei_den
(>4a	Preußen
8g)	.
8a	probir'n,
=8	=8
4b/	.
(8dd	ei,
8cc)	das
4b/}	ging
{4a	nicht
=9	=9
(<8gL	an,
8b	.
8a	.
8ccJ	.
4b/)	.
(8dd	ei,
8cc)	das
=10	=10
4b/	ging
4a	nicht
4g;}	an!
==	==
!!!AGN: Soldaten - Lied, Deserteur
!!!ONB: ESAC (Essen Associative Code) Database: FINK
!!!AMT: simple quadruple
!!!AIN: vox
!!!EED: Helmut Schaffrath
!!!EEV: 1.0
!!!RDF**kern: > = above
!!!RDF**kern: < = below
!!!GTL: Soldaten- und Jaegerlieder
!!Text: Volkslied
!!!source: Musikalischer Hausschatz der Deutschen. Eine Sammlung von über 1000 Liedern und Gesängen mit Singstimmen und Klavierbegleitung. Leipzig, Litterarisches Verlags-Haus.
!!!page: 376
!!!URL-scan: https://www.digitale-sammlungen.de/en/view/bsb11144622?page=343
!!!ENC: Anna Maria Matuszewska
!!!EEV: 2024/08/02
*-	*-
